dist/svg/treeview.svg

<!-- Generated by Trend Micro Style Portal -->
<svg version="1.1" xmlns="http://www.w3.org/2000/svg" width="16" height="16" viewBox="0 0 16 16">
  <title>treeview</title>
  <path fill="rgb(34,34,34)" d="M11 9c0.002 0.552 0.448 0.998 1 1h2c0.552-0.002 0.998-0.448 1-1v-2c-0.002-0.552-0.448-0.998-1-1h-2c-0.552 0.002-0.998 0.448-1 1v0h-7v-2c0.552-0.002 0.998-0.448 1-1v-2c-0.002-0.552-0.448-0.998-1-1h-2c-0.552 0.002-0.998 0.448-1 1v2c0.002 0.552 0.448 0.998 1 1h0v9h9c0.002 0.552 0.448 0.998 1 1h2c0.552-0.002 0.998-0.448 1-1v-2c-0.002-0.552-0.448-0.998-1-1h-2c-0.552 0.002-0.998 0.448-1 1v0h-7v-3zM12 7h2v2h-2zM2 2h2v2h-2zM12 12h2v2h-2z"></path>
</svg>

<svg width="16" height="16" viewBox="0 0 16 16" fill="rgb(34, 34, 34)" xmlns="http://www.w3.org/2000/svg"><title>treeview</title><path d="M11 9C11.002 9.552 11.448 9.998 12 10H14C14.552 9.998 14.998 9.552 15 9V7C14.998 6.448 14.552 6.002 14 6H12C11.448 6.002 11.002 6.448 11 7H4V5C4.552 4.998 4.998 4.552 5 4V2C4.998 1.448 4.552 1.002 4 1H2C1.448 1.002 1.002 1.448 1 2V4C1.002 4.552 1.448 4.998 2 5V14H11C11.002 14.552 11.448 14.998 12 15H14C14.552 14.998 14.998 14.552 15 14V12C14.998 11.448 14.552 11.002 14 11H12C11.448 11.002 11.002 11.448 11 12H4V9H11ZM12 7H14V9H12V7ZM2 2H4V4H2V2ZM12 12H14V14H12V12Z" fill="rgb(34, 34, 34)" fill-opacity="1.00"/></svg>
